X:639
T: Kuangfeng chuibugan honghushui
N: C2163
O: China, Hubei Honghu
S: I, 421]
R: Xiaodiao]
M: 2/4
L: 1/16
K: D
A3AB2dB | A3BA3F | A2BdBAF2 | E3DE4 |
B2Bde2ed | B2dBA2F2 | A2BdBAF2 | e4f4 | e8

